Exam-01/assets/images/testi-left.svg

<svg width="542" height="322" viewBox="0 0 542 322" fill="none" xmlns="http://www.w3.org/2000/svg">
<path d="M76.6013 320.686C-26.2511 314.097 -22.1283 202.395 76.6 98.9492C288.836 -90.4677 510.108 43.3594 534.596 98.9492C559.085 154.539 515.356 201.271 368.424 186.859C221.492 172.446 205.167 328.921 76.6013 320.686Z" stroke="white" stroke-width="1.5"/>
<path d="M258.629 209.834C252.639 196.311 265.999 176.979 288.47 166.655C310.941 156.331 334.014 158.924 340.004 172.447C345.995 185.97 332.634 205.302 310.163 215.626C287.692 225.95 264.619 223.357 258.629 209.834Z" stroke="white" stroke-width="1.5"/>
</svg>

<svg xmlns="http://www.w3.org/2000/svg" width="542" height="322" fill="none"><path stroke="#fff" stroke-width="1.5" d="M76.601 320.686c-102.852-6.589-98.73-118.291-.001-221.737 212.236-189.417 433.508-55.59 457.996 0 24.489 55.59-19.24 102.322-166.172 87.91-146.932-14.413-163.257 142.062-291.823 133.827Z"/><path stroke="#fff" stroke-width="1.5" d="M258.629 209.834c-5.99-13.523 7.37-32.855 29.841-43.179 22.471-10.324 45.544-7.731 51.534 5.792 5.991 13.523-7.37 32.855-29.841 43.179-22.471 10.324-45.544 7.731-51.534-5.792Z"/></svg>
